svg/Octicons/browser.svg

<svg xmlns="http://www.w3.org/2000/svg" viewBox="0 0 896 1024"><path d="m320 192h64v64h-64v-64m-128 0h64v64h-64v-64m-128 0h64v64h-64v-64m768 640h-768v-512h768v512m0-576h-384v-64h384v64m64-64c0-35.35-28.65-64-64-64h-768c-35.35 0-64 28.65-64 64v640c0 35.35 28.65 64 64 64h768c35.35 0 64-28.65 64-64v-640"/></svg>

<svg height="1024" width="896" xmlns="http://www.w3.org/2000/svg">
  <path d="M320 192h64v64h-64V192zM192 192h64v64h-64V192zM64 192h64v64H64V192zM832 832H64V320h768V832zM832 256H448v-64h384V256zM896 192c0-35.35-28.65-64-64-64H64c-35.35 0-64 28.65-64 64v640c0 35.35 28.65 64 64 64h768c35.35 0 64-28.65 64-64V192z" />
</svg>
